!! 00000] TT[WS
!!!OTL: Hui guannan
!!!ARE: Asia, China,ÿShanxi Dingxiang
!! Ethnic Group: Han
!! WI, 92 (1)
!!!SCT: J0109
!!!YEM: Copyright 1995, estate of Helmut Schaffrath.
**kern
*ICvox
*Ivox
*M2/4
*k[]
*C:
{16dd
16dd
16dd
16ee
16dd
16cc
16a
16cc
=1
2dd
=2
16ee
16dd
16b
16a
4g}
=3
{16a
16a
16a
16b
16a
16g
16e
16d
=4
2g
=5
8a
8a
16dd
16ee
16dd
16cc
=6
16g
16r
16b
16dd
8dd
8b
=7
16a
16a
16a
16cc
16a
16g
16f
16f
=8
2g}
==
!!!AGN: Xiaodiao. Qingge, Aisu
!!!ONB: ESAC (Essen Associative Code) Database: CHINA
!!!AMT: simple duple
!!!AIN: vox
!!!EED: Helmut Schaffrath
!!!EEV: 1.0
*-
